lib/brands/icons/typescript.svg

<svg xmlns="http://www.w3.org/2000/svg" fill="none" aria-hidden="true" viewBox="0 0 48 48"><g id="typescript-Icon"><g id="Group"><path id="Vector" fill="#007ACC" d="M6 24V42H24H42V24V6H24H6V24Z"/><path id="Vector_2" fill="white" d="M13.9605 24.1194L13.9491 25.5937H16.2919H18.6348V32.2508V38.908H20.2919H21.9491V32.2508V25.5937H24.2919H26.6348L26.6348 24.148C26.6348 23.348 26.6176 22.6794 26.5948 22.6622C26.5776 22.6394 23.7262 22.628 20.2691 22.6337L13.9776 22.6508L13.9605 24.1194Z"/><path id="Vector_3" fill="white" d="M35.0487 22.6089C35.963 22.8375 36.6602 23.2432 37.3002 23.9061C37.6316 24.2604 38.123 24.9061 38.163 25.0604C38.1744 25.1061 36.6087 26.1575 35.6602 26.7461C35.6259 26.7689 35.4887 26.6204 35.3344 26.3918C34.8716 25.7175 34.3859 25.4261 33.643 25.3747C32.5516 25.3004 31.8487 25.8718 31.8544 26.8261C31.8544 27.1061 31.8944 27.2718 32.0087 27.5004C32.2487 27.9975 32.6944 28.2947 34.0944 28.9004C36.6716 30.0089 37.7744 30.7404 38.4602 31.7804C39.2259 32.9404 39.3973 34.7918 38.8773 36.1689C38.3059 37.6661 36.8887 38.6832 34.8944 39.0204C34.2773 39.1289 32.8144 39.1118 32.1516 38.9918C30.7059 38.7347 29.3344 38.0204 28.4887 37.0832C28.1573 36.7175 27.5116 35.7632 27.5516 35.6947C27.5687 35.6718 27.7173 35.5804 27.883 35.4832C28.043 35.3918 28.6487 35.0432 29.2202 34.7118L30.2544 34.1118L30.4716 34.4318C30.7744 34.8947 31.4373 35.5289 31.8373 35.7404C32.9859 36.3461 34.563 36.2604 35.3402 35.5632C35.6716 35.2604 35.8087 34.9461 35.8087 34.4832C35.8087 34.0661 35.7573 33.8832 35.5402 33.5689C35.2602 33.1689 34.6887 32.8318 33.0659 32.1289C31.2087 31.3289 30.4087 30.8318 29.6773 30.0432C29.2544 29.5861 28.8544 28.8547 28.6887 28.2432C28.5516 27.7347 28.5173 26.4604 28.6259 25.9461C29.0087 24.1518 30.363 22.9004 32.3173 22.5289C32.9516 22.4089 34.4259 22.4547 35.0487 22.6089Z"/></g></g></svg>

<svg xmlns="http://www.w3.org/2000/svg" fill="none" aria-hidden="true" viewBox="0 0 48 48"><path fill="#007ACC" d="M6 24v18h36V6H6v18Z"/><path fill="#fff" d="m13.961 24.12-.011 1.474h4.685v13.314h3.314V25.594h4.686v-1.446c0-.8-.017-1.469-.04-1.486-.017-.023-2.868-.034-6.325-.028l-6.292.017-.017 1.468Zm21.087-1.511a4.48 4.48 0 0 1 2.252 1.297c.331.354.823 1 .863 1.154.011.046-1.554 1.098-2.503 1.686-.034.023-.171-.126-.326-.354-.463-.674-.948-.966-1.691-1.017-1.092-.075-1.794.497-1.789 1.451 0 .28.04.446.154.674.24.497.686.795 2.086 1.4 2.577 1.109 3.68 1.84 4.366 2.88.766 1.16.937 3.012.417 4.389-.571 1.497-1.989 2.514-3.983 2.851-.617.109-2.08.092-2.743-.028-1.445-.257-2.817-.972-3.663-1.909-.331-.365-.977-1.32-.937-1.388.018-.023.166-.115.332-.212.16-.091.765-.44 1.337-.771l1.034-.6.217.32c.303.463.966 1.097 1.366 1.308 1.149.606 2.726.52 3.503-.177.331-.303.468-.617.468-1.08 0-.417-.05-.6-.268-.914-.28-.4-.852-.737-2.474-1.44-1.858-.8-2.658-1.297-3.389-2.086-.423-.457-.823-1.188-.988-1.8-.138-.508-.172-1.783-.063-2.297.383-1.794 1.737-3.046 3.691-3.417.634-.12 2.109-.074 2.731.08Z"/></svg>
